frontend/src/assets/svgs/show.svg

<?xml version="1.0" encoding="UTF-8"?>
<svg width="35px" height="35px" viewBox="0 0 35 35" version="1.1" xmlns="http://www.w3.org/2000/svg" xmlns:xlink="http://www.w3.org/1999/xlink">
    <!-- Generator: Sketch 52.4 (67378) - http://www.bohemiancoding.com/sketch -->
    <title>future/icons/show</title>
    <desc>Created with Sketch.</desc>
    <g id="future/icons/show" stroke="none" stroke-width="1" fill="none" fill-rule="evenodd">
        <path d="M3,1 C1.8954305,1 1,1.8954305 1,3 L1,32 C1,33.1045695 1.8954305,34 3,34 L32,34 C33.1045695,34 34,33.1045695 34,32 L34,3 C34,1.8954305 33.1045695,1 32,1 L3,1 Z" id="Rectangle-3" stroke="#5A5A5A" stroke-width="2" fill="#5A5A5A" fill-rule="nonzero"></path>
        <g id="icon/show" transform="translate(6.000000, 11.000000)" fill-rule="nonzero" stroke="#FFFFFF" stroke-width="3">
            <g id="Eye">
                <path d="M11.7010975,13.6662602 C16.0093226,13.6662602 19.9096885,11.4993903 23.402195,7.16565046 C19.9096885,2.83191065 16.0093226,0.665040738 11.7010975,0.665040738 C7.39287236,0.665040738 3.49250653,2.83191065 0,7.16565046 C3.49250653,11.4993903 7.39287236,13.6662602 11.7010975,13.6662602 Z" id="Oval"></path>
                <circle id="Oval" cx="11.7010975" cy="7.16565046" r="5.20048778"></circle>
            </g>
        </g>
    </g>
</svg>

<svg viewBox="0 0 35 35" xmlns="http://www.w3.org/2000/svg"><g fill="none" fill-rule="nonzero"><path d="M3 1a2 2 0 0 0-2 2v29a2 2 0 0 0 2 2h29a2 2 0 0 0 2-2V3a2 2 0 0 0-2-2H3z" stroke="#5A5A5A" stroke-width="2" fill="#5A5A5A"/><g transform="translate(6 11)" stroke="#FFF" stroke-width="3"><path d="M11.701 13.666c4.308 0 8.209-2.167 11.701-6.5C19.91 2.832 16.01.665 11.702.665c-4.31 0-8.21 2.167-11.702 6.5 3.493 4.334 7.393 6.501 11.701 6.501z"/><circle cx="11.701" cy="7.166" r="5.2"/></g></g></svg>
